X:1
T:Sunshine in My Soul
T:John Robson Sweney
T:Sunshine in My Soul
T:Public Domain
T:Public Domain
C:John Robson Sweney
Z:Public Domain
%%score ( 1 2 ) ( 3 4 )
L:1/8
M:4/4
K:Ab
V:1 treble 
V:2 treble 
V:3 bass 
V:4 bass 
V:1
 [CA]>[DB] | [Ec]2 [CE]2 [DF]>[EG] [FA]>[FB] | [Ec]6 ([Ec]>[Fd]) | [Ec]2 [DB]2 [DE]2 [DB]2 | %4
w: 1.~There is|sun- shine in my soul to-|day, More *|glor- i- ous and|
w: 2.~There is|mu- sic in my soul to-|day, A *|ca- rol to my|
w: 3.~There is|spring- time in my soul to-|day, For, *|when the Lord is|
w: 4.~There is|glad- ness in my soul to-|day, And *|hope and praise and|
 [CA]6 ([CA]>[DB]) | [Ec]2 [CE]2 [DF]>[EG] [FA]>[FB] | [Ec]6 [Ec]2 | [EB]3 [EB] [Ac]2 [A=d]2 | %8
w: bright Than *|glows in a- ny earth- ly|sky, For|Je- sus is my|
w: king, And *|Je- sus, list- en- ing, can|hear The|songs I can- not|
w: near, The *|dove of peace sings in my|heart, The|flowers of grace ap-|
w: love, For *|bless- ings which He gives me|now, For|joys “laid up” a-|
 [Ge]6 ||"^Refrain" [Ge]>[Ed] | [Ec]4 [EA]2 [FB]>[FA] | [DF]4 [CE]2 | [A,C]>[B,D] | %13
w: light.|||||
w: sing.|O there’s|sun- shine, bless- èd|sun- shine,|When the|
w: pear.|||||
w: bove.|||||
 [CE]2 [CA]2 [Ec]>[Ee] [Ed]>[Ec] | [EB]6 (e>d) | [Ec]2 [Ec]2 [Fd]3 [Ec] | %16
w: |||
w: peace- ful, hap- py mo- ments|roll; When *|sus shows His smil-|
w: |||
w: |||
 (cB)([FA][DF]) [CE]2 [EA][FB] | [Ec] [Ec]3 [DB]2 [DB]2 | [CA]6 |] %19
w: |||
w: ing * face, * There is sun-|in the soul. *||
w: |||
w: |||
V:2
 x2 | x8 | x8 | x8 | x8 | x8 | x8 | x8 | x6 || x2 | x8 | x6 | x2 | x8 | x6 E2 | x8 | E2 x6 | x8 | %18
w: ||||||||||||||||||
w: ||||||||||||||Je-||shine||
 x6 |] %19
w: |
w: |
V:3
 [A,,E,]2 | [A,,A,]2 [A,,A,]2 [D,A,]>[D,A,] [D,A,]>[D,A,] | [A,,A,]6 [A,,A,]2 | %3
w: ~|~ ~ ~ ~ ~ ~|~ ~|
 [E,A,]2 [E,G,]2 [E,G,]2 E,2 | [A,,E,]6 [A,,E,]2 | [A,,A,]2 [A,,A,]2 [D,A,]>[D,A,] [D,A,]>[D,A,] | %6
w: ~ ~ ~ ~|~ ~|~ ~ ~ ~ ~ ~|
 [A,,A,]6 [A,,A,]2 | [B,,G,]3 [B,,G,] [B,,B,]2 [B,,B,]2 | [E,B,]6 || [E,B,]>[G,B,] | %10
w: ~ ~|~ ~ ~ ~|O|there’s sun-|
 A,>A, A,>A, [A,C]2 [D,D]>[D,D] | [D,A,]>[D,A,] [D,A,]>[D,A,] [A,,A,]2 | [A,,E,]>[A,,E,] | %13
w: shine in my soul, bless- èd sun-|shine in my soul, ~|~ ~|
 [A,,A,]2 [A,,E,]2 A,>[A,C] [G,B,]>A, | [E,G,]>[E,G,] [E,G,]>[E,G,] ([E,G,]>[F,A,]) [G,B,]2 | %15
w: ~ ~ ~ ~ ~ hap-|py mo- ments roll; * * *|
 A,2 A,2 A,3 A, | [D,D]2 (DA,) [A,,A,]2 [C,A,][D,A,] | [E,A,] [E,A,]3 [E,G,]2 [E,G,]2 | %18
w: |||
 [A,,E,A,]6 |] %19
w: |
V:4
 x2 | x8 | x8 | x6 E,2 | x8 | x8 | x8 | x8 | x6 || x2 | x8 | x6 | x2 | x8 | x8 | A,2 A,2 A,3 A, | %16
w: |||~|||||||||||||
 x2 D,2 x4 | x8 | x6 |] %19
w: |||

